templates/flag_icons/ca.svg

<?xml version="1.0" encoding="UTF-8" standalone="no"?>
<svg width="23px" height="17px" viewBox="0 0 23 17" version="1.1" xmlns="http://www.w3.org/2000/svg" xmlns:xlink="http://www.w3.org/1999/xlink">
    <!-- Generator: Sketch 3.7.2 (28276) - http://www.bohemiancoding.com/sketch -->
    <title>CA</title>
    <desc>Created with Sketch.</desc>
    <defs>
        <linearGradient x1="50%" y1="0%" x2="50%" y2="100%" id="linearGradient-1">
            <stop stop-color="#FFFFFF" offset="0%"></stop>
            <stop stop-color="#F0F0F0" offset="100%"></stop>
        </linearGradient>
        <rect id="path-2" x="0" y="0" width="21" height="15" rx="1.5"></rect>
        <filter x="-50%" y="-50%" width="200%" height="200%" filterUnits="objectBoundingBox" id="filter-4">
            <feOffset dx="0" dy="0.5" in="SourceAlpha" result="shadowOffsetOuter1"></feOffset>
            <feGaussianBlur stdDeviation="0.5" in="shadowOffsetOuter1" result="shadowBlurOuter1"></feGaussianBlur>
            <feColorMatrix values="0 0 0 0 0   0 0 0 0 0   0 0 0 0 0  0 0 0 0.16 0" type="matrix" in="shadowBlurOuter1"></feColorMatrix>
        </filter>
        <linearGradient x1="50%" y1="0%" x2="50%" y2="100%" id="linearGradient-5">
            <stop stop-color="#FF3131" offset="0%"></stop>
            <stop stop-color="#FF0000" offset="100%"></stop>
        </linearGradient>
        <rect id="path-6" x="6" y="0" width="9" height="15"></rect>
        <filter x="-50%" y="-50%" width="200%" height="200%" filterUnits="objectBoundingBox" id="filter-7">
            <feMorphology radius="0.25" operator="dilate" in="SourceAlpha" result="shadowSpreadOuter1"></feMorphology>
            <feOffset dx="0" dy="0" in="shadowSpreadOuter1" result="shadowOffsetOuter1"></feOffset>
            <feColorMatrix values="0 0 0 0 0   0 0 0 0 0   0 0 0 0 0  0 0 0 0.06 0" type="matrix" in="shadowOffsetOuter1"></feColorMatrix>
        </filter>
    </defs>
    <g id="Flag-Kit" stroke="none" stroke-width="1" fill="none" fill-rule="evenodd">
        <g id="CA">
            <g id="BE-Copy" transform="translate(1.000000, 1.000000)">
                <mask id="mask-3" fill="white">
                    <use xlink:href="#path-2"></use>
                </mask>
                <g id="Mask">
                    <use fill="black" fill-opacity="1" filter="url(#filter-4)" xlink:href="#path-2"></use>
                    <use fill="url(#linearGradient-1)" fill-rule="evenodd" xlink:href="#path-2"></use>
                </g>
                <rect id="Mask" fill="url(#linearGradient-5)" mask="url(#mask-3)" x="10" y="0" width="11" height="15"></rect>
                <rect id="Rectangle-2" fill="url(#linearGradient-5)" mask="url(#mask-3)" x="0" y="0" width="7" height="15"></rect>
                <g id="Rectangle-2-Copy" mask="url(#mask-3)">
                    <use fill="black" fill-opacity="1" filter="url(#filter-7)" xlink:href="#path-6"></use>
                    <use fill="url(#linearGradient-1)" fill-rule="evenodd" xlink:href="#path-6"></use>
                </g>
                <path d="M11.6741867,7.32581329 C11.577986,7.42201396 11.5214844,7.39257812 11.5497699,7.25115061 L12,5 L11,5.5 L10.5,4 L10,5.5 L9,5 L9.45023012,7.25115061 C9.47771727,7.38858633 9.42153168,7.42153168 9.32581329,7.32581329 L8.67418671,6.67418671 C8.57798604,6.57798604 8.421875,6.578125 8.31948853,6.68051147 L8,7 L7,6.5 L7.5,7.5 L7.18051147,7.81948853 C7.08081774,7.91918226 7.08064651,8.08064651 7.17206907,8.17206907 L8.5,9.5 L10,9.5 L10.25,11 L10.75,11 L11,9.5 L12.5,9.5 L13.8279309,8.17206907 C13.9229621,8.07703795 13.921875,7.921875 13.8194885,7.81948853 L13.5,7.5 L14,6.5 L13,7 L12.6805115,6.68051147 C12.5808177,6.58081774 12.4215317,6.57846832 12.3258133,6.67418671 L11.6741867,7.32581329 Z" id="Rectangle-66" fill="url(#linearGradient-5)" mask="url(#mask-3)"></path>
                <rect id="Depth" mask="url(#mask-3)" x="0" y="0" width="21" height="15" rx="1.5"></rect>
            </g>
        </g>
    </g>
</svg>

<svg width="23" height="17" viewBox="0 0 23 17" xmlns="http://www.w3.org/2000/svg" xmlns:xlink="http://www.w3.org/1999/xlink"><title>CA</title><defs><linearGradient x1="50%" y1="0%" x2="50%" y2="100%" id="c"><stop stop-color="#FFF" offset="0%"/><stop stop-color="#F0F0F0" offset="100%"/></linearGradient><rect id="a" width="21" height="15" rx="1.5"/><filter x="-50%" y="-50%" width="200%" height="200%" filterUnits="objectBoundingBox" id="b"><feOffset dy=".5" in="SourceAlpha" result="shadowOffsetOuter1"/><feGaussianBlur stdDeviation=".5" in="shadowOffsetOuter1" result="shadowBlurOuter1"/><feColorMatrix values="0 0 0 0 0 0 0 0 0 0 0 0 0 0 0 0 0 0 0.16 0" in="shadowBlurOuter1"/></filter><linearGradient x1="50%" y1="0%" x2="50%" y2="100%" id="d"><stop stop-color="#FF3131" offset="0%"/><stop stop-color="#F00" offset="100%"/></linearGradient><path id="g" d="M6 0h9v15H6z"/><filter x="-50%" y="-50%" width="200%" height="200%" filterUnits="objectBoundingBox" id="f"><feMorphology radius=".25" operator="dilate" in="SourceAlpha" result="shadowSpreadOuter1"/><feOffset in="shadowSpreadOuter1" result="shadowOffsetOuter1"/><feColorMatrix values="0 0 0 0 0 0 0 0 0 0 0 0 0 0 0 0 0 0 0.06 0" in="shadowOffsetOuter1"/></filter></defs><g transform="translate(1 1)" fill="none" fill-rule="evenodd"><mask id="e" fill="#fff"><use xlink:href="#a"/></mask><use fill="#000" filter="url(#b)" xlink:href="#a"/><use fill="url(#c)" xlink:href="#a"/><path fill="url(#d)" mask="url(#e)" d="M10 0h11v15H10zM0 0h7v15H0z"/><g mask="url(#e)"><use fill="#000" filter="url(#f)" xlink:href="#g"/><use fill="url(#c)" xlink:href="#g"/></g><path d="M11.67 7.33c-.1.1-.15.06-.12-.08L12 5l-1 .5-.5-1.5-.5 1.5L9 5l.45 2.25c.03.14-.03.17-.12.08l-.66-.66a.25.25 0 0 0-.35.01L8 7l-1-.5.5 1-.32.32c-.1.1-.1.26 0 .35L8.5 9.5H10l.25 1.5h.5L11 9.5h1.5l1.33-1.33c.1-.1.1-.25-.01-.35l-.32-.32.5-1-1 .5-.32-.32a.25.25 0 0 0-.35 0l-.66.65z" fill="url(#d)" mask="url(#e)"/><rect mask="url(#e)" width="21" height="15" rx="1.5"/></g></svg>
